assets/imgs/board_puzzle.svg

<svg width="152" height="92" viewBox="0 0 152 92" fill="none" xmlns="http://www.w3.org/2000/svg">
<path d="M31.2965 59.147L31.2965 72.1778L31.2965 91L63.4482 91C70.6616 91 68.6666 87.9164 67.9643 85.1071C67.4286 82.9643 62.0714 78.6786 65.2857 69.2821C68.3155 60.425 83.5014 59.147 86.3868 69.2821C89.2722 79.4171 83.8713 79.3157 82.4286 85.1071C81.2744 89.7403 87.4523 91 89.3759 91L120.703 91L120.703 60.5949C120.703 57.6992 122.435 52.7764 129.36 56.2513C138.016 60.5949 144.57 57.6992 146.013 56.2513C147.455 54.8034 151 50.4599 151 46.1163C151 41.7727 148.354 35.9812 146.013 34.4146C141.684 31.5189 134.197 32.2134 129.36 35.9812C124.75 39.5714 120.703 36.8929 120.703 33.8384L120.703 30.1898L120.703 1.23253L85.7903 1.23253C83.3858 2.19777 81.5853 4.99697 85.0478 8.47184C88.5103 11.9467 89.3759 16.6764 89.3759 18.6069C89.3759 22.4679 87.5623 30.9731 77.1749 30.9731C64.1907 30.9731 63.1193 20.0548 63.1193 18.6069C63.1193 17.159 63.1194 15.7112 67.4474 8.47184C70.9099 2.68039 65.043 1.23253 61.6767 1.23253L31.2965 1.23253L31.2965 24.3983C32.0714 35.8214 31.2965 38.5 25.5258 37.4291C22.6361 36.8929 18.0705 29.7432 6.89287 34.2143C1.53572 36.3571 0.999998 42.7857 0.999998 46.1163C0.999998 49.012 2.4427 55.3826 8.21347 57.6992C15.4269 60.5949 19.755 57.6992 25.5258 54.8034C30.1424 52.4869 31.2965 56.7339 31.2965 59.147Z" fill="white" stroke="#4B4B4B" stroke-opacity="0.5" stroke-width="2" stroke-linejoin="round"/>
</svg>

<svg width="152" height="92" fill="none" xmlns="http://www.w3.org/2000/svg"><path d="M31.297 59.147V91h32.151c7.214 0 5.219-3.084 4.516-5.893-.535-2.143-5.893-6.428-2.678-15.825 3.03-8.857 18.215-10.135 21.1 0 2.886 10.135-2.515 10.034-3.957 15.825C81.274 89.74 87.452 91 89.376 91h31.327V60.595c0-2.896 1.732-7.819 8.657-4.344 8.656 4.344 15.21 1.448 16.653 0C147.455 54.803 151 50.46 151 46.116c0-4.343-2.646-10.135-4.987-11.701-4.329-2.896-11.816-2.202-16.653 1.566-4.61 3.59-8.657.912-8.657-2.143V1.233H85.79c-2.404.965-4.205 3.764-.742 7.239 3.462 3.475 4.328 8.204 4.328 10.135 0 3.86-1.814 12.366-12.201 12.366-12.984 0-14.056-10.918-14.056-12.366 0-1.448 0-2.896 4.328-10.135 3.463-5.792-2.404-7.24-5.77-7.24h-30.38v23.166c.774 11.423 0 14.102-5.771 13.031-2.89-.536-7.456-7.686-18.633-3.215C1.536 36.357 1 42.786 1 46.116c0 2.896 1.443 9.267 7.213 11.583 7.214 2.896 11.542 0 17.313-2.896 4.616-2.316 5.77 1.93 5.77 4.344z" fill="#fff" stroke="#4B4B4B" stroke-opacity=".5" stroke-width="2" stroke-linejoin="round"/></svg>
